X:1
T:Ultima Character Creation Music
Q:1/4=144
M:C
Z:Northman
% End Header
K:F
L:1/8
Ddad adda|DBfd fBdf|Dcgd gcdg|DAed eAde|
Ddad adda|DBfd fBdf|DAed eAde|DAed e2FE|
Ddad adda|DBfd fBdf|Dcgd gcdg|DAed eAde|
GBfd fBdf|Acgd gcdg|Ddad adda|Ddad a4|
D,AGf GAfA|B,FGd GFdF|CGGe GGeG|A,EGc GEcE|
D,AGf GAfA|B,FGd GFdF|A,EGc GEcE|A,EGc- c2F,E,|
D,AGf GAfA|B,FGd GFdF|CGGe GGeG|A,EGc GEcE|
G,Bfd fBdf|A,cgd gcdg|D,dad adda|D,8|]
-----------------------------------------------------------------------------
some retrogame tunes (by Walkingghost):
the second one rules, you're my hero! thank you for that!
